Origami/16x16/apps/komorebi.svg

<svg width="16" height="16" version="1" xmlns="http://www.w3.org/2000/svg">
 <path d="m16 8v-5.1818c0-0.4533-0.382-0.8182-0.857-0.8182h-14.286c-0.47471 0-0.857 0.3649-0.857 0.8182v10.364c4.0000001e-8 0.453 0.38229 0.818 0.85714 0.818h9.14286z" style="fill:#8847bd"/>
 <path d="m14 8.516v-4.516h-12v8h7.9999714z" style="fill:#a675ce"/>
 <path d="m16 8h-5.25c-0.414 0-0.75 0.336-0.75 0.75v5.25z" style="fill:#cfb2dd"/>
 <path d="m5.6368843 5.0001732a0.62272673 0.66945061 0 0 0 -0.6368843 0.669193v2.330798 2.3307968a0.62272673 0.66945061 0 0 0 0.9339343 0.579446l1.8770363-1.1653975 1.8776473-1.1653984a0.62272673 0.66945061 0 0 0 0 -1.1595453l-1.8776473-1.1653984-1.8770363-1.1653984a0.62272673 0.66945061 0 0 0 -0.29705 -0.0891z" style="fill:#ffffff"/>
</svg>

<svg xmlns="http://www.w3.org/2000/svg" width="16" height="16" version="1">
 <path style="fill:#8847bd" d="M 16,8 16,2.8182 C 16,2.3649 15.618,2 15.143,2 L 0.857,2 C 0.38229,2 0,2.3649 0,2.8182 l 0,10.364 c 4.0000001e-8,0.453 0.38229,0.818 0.85714,0.818 l 9.14286,0 z"/>
 <path style="fill:#a675ce" d="M 14,8.516 14,4 2,4 l 0,8 7.9999714,0 z"/>
 <path style="fill:#cfb2dd" d="m16 8h-5.25c-0.414 0-0.75 0.336-0.75 0.75v5.25z"/>
 <path style="fill:#ffffff" d="M 5.6368843,5.0001732 A 0.62272673,0.66945061 0 0 0 5,5.6693662 l 0,2.330798 0,2.3307968 a 0.62272673,0.66945061 0 0 0 0.9339343,0.579446 L 7.8109706,9.7450095 9.6886179,8.5796111 a 0.62272673,0.66945061 0 0 0 0,-1.1595453 L 7.8109706,6.2546674 5.9339343,5.089269 a 0.62272673,0.66945061 0 0 0 -0.29705,-0.0891 z"/>
</svg>
